X:6
T: Galopp 1870/75 A&D (tinwhistle in D) solo
T:GL08986 (Hanny Christen)
%%MIDI program 72   % 111 /74 / 79=whistle
R:galopp
M:2/4
L:1/16
K:A transpose=12
A2AA A2A2 | c6BA | "_#"G2F2 E2"_#"G2 | A4z2ED || .E4.F4 | E2cc c2A2 | .E4.F4 | E2ee e2c2 | 
{/c}B2^A2 B2c2 | .d4 "_#"G3A | .B4 C3D | F4.E4 | .E4 .F4 | E2AA A2"_#"G2 | .F4"_#".G4 | F2BB B2A2 | "_#"G2A2 B2c2 | 
d2e2f4 | e2AB c2B2 | A2A2 A2z2 |: [L:1/8] B3A | "_#"G>E ^DE | c3B | A>E ^DE | dcB2 | cBA2 | 
e"_#"G/2A/2 Bc | A2z2 :| [K:D] F3G | ^GA d>c | c3B | E2z2 | E3F | G>E c>B | B3A | 
F2z2 | F3G | ^GA d>c | cB (!>!e2 | e).d .c.B | ^GA (!>!c2 | c)B GE | D2 d>d | d2z2 |]
% Aug 4, 2016

